X:4084
T:Derry Reel
R:Reel
S:(Sharon Shannon)
H:
N:
D:Galway Arts Festival Concert
Z:Adrian Scahill
M:4/4
L:1/8
K:A
c2cB ABcA|BAcB AFEF|ABce aAgA|(3fga ec BcAB|\
c2cB ABcA|BAcB AFEF|1 ABce (3fga ec|BABc A3B:|2 ABce fece|fAgA a3g||\
f3 f cfaf|geBe gaag|f2af cfaf|gfeg f3g|\
aecB ABcA|BAcA BAFB|1 ABce fece|fAgA a3g:|2 ABce (3fga ec|BABc A3B||
